images/LVN.svg

<svg height="250" viewBox="0 0 250 250" width="250" xmlns="http://www.w3.org/2000/svg"><g fill="#ff0b75"><path d="m124.996094.0078125c-24.722656 0-48.886719 7.3320315-69.445313 21.0664065-20.554687 13.734375-36.574219 33.253906-46.035156 56.09375-9.4609375 22.84375-11.9375 47.972656-7.113281 72.222656 4.824218 24.246094 16.726562 46.519531 34.207031 64s39.753906 29.382813 64 34.207031c24.25 4.824219 49.378906 2.347656 72.222656-7.113281 22.839844-9.460937 42.359375-25.480469 56.09375-46.035156 13.734375-20.558594 21.066407-44.722657 21.066407-69.445313-.039063-33.136718-13.222657-64.910156-36.65625-88.339844-23.433594-23.433593-55.203126-36.617187-88.339844-36.6562495zm110.289062 124.9960935c0 21.820313-6.46875 43.152344-18.59375 61.292969-12.121094 18.144531-29.355468 32.285156-49.515625 40.632813-20.160156 8.351562-42.34375 10.53125-63.746093 6.273437-21.398438-4.257813-41.058594-14.769531-56.484376-30.203125-15.425781-15.429688-25.933593-35.089844-30.183593-56.492188-4.253907-21.402343-2.066407-43.585937 6.289062-63.742187 8.355469-20.160156 22.5-37.386719 40.644531-49.503906 18.148438-12.121094 39.480469-18.585938 61.300782-18.578125 29.246094.03125 57.285156 11.664062 77.960937 32.347656 20.679688 20.683594 32.304688 48.726562 32.328125 77.972656zm0 0"/><path d="m74.203125 116.175781c-6.648437-2.644531-14.058594-2.609375-20.683594.089844-6.625 2.703125-11.945312 7.863281-14.847656 14.398437-1.304687 3.179688-1.957031 6.585938-1.921875 10.019532.039062 3.4375.765625 6.828125 2.136719 9.976562 1.4375 3.40625 3.539062 6.492188 6.179687 9.082032 2.640625 2.585937 5.769532 4.625 9.203125 5.996093 4.527344 1.710938 9.339844 2.546875 14.183594 2.460938 10.621094-.382813 21.074219-2.753907 30.824219-6.984375 1.085937-.238282 2.09375-.742188 2.9375-1.464844.839844-.726562 1.488281-1.652344 1.882812-2.691406.394532-1.039063.523438-2.15625.375-3.257813-.152344-1.101562-.570312-2.148437-1.226562-3.046875-.429688-1.105468-10.644532-27.226562-29.042969-34.578125zm0 0"/><path d="m146.378906 150.753906c-.648437.898438-1.0625 1.941406-1.210937 3.039063-.144531 1.097656-.019531 2.210937.371093 3.246093.390626 1.035157 1.03125 1.960938 1.863282 2.6875.832031.730469 1.835937 1.238282 2.914062 1.488282 9.789063 4.238281 20.285156 6.605468 30.949219 6.984375 4.839844.082031 9.652344-.753907 14.179687-2.464844 3.433594-1.367187 6.5625-3.40625 9.203126-5.992187 2.640624-2.589844 4.742187-5.675782 6.179687-9.082032 1.375-3.148437 2.101563-6.539062 2.136719-9.976562.035156-3.433594-.617188-6.839844-1.921875-10.019532-2.902344-6.574218-8.25-11.761718-14.910157-14.464843-6.660156-2.707031-14.109374-2.714844-20.777343-.023438-18.457031 7.351563-28.546875 33.46875-28.976563 34.578125zm0 0"/><path d="m151.730469 102.667969c.007812-7.15625-2.757813-14.035157-7.714844-19.195313-4.953125-5.164062-11.714844-8.207031-18.863281-8.492187-3.429688-.023438-6.828125.636719-9.996094 1.941406-3.171875 1.304687-6.046875 3.226563-8.464844 5.65625-2.636718 2.582031-4.734375 5.65625-6.175781 9.050781-1.441406 3.394532-2.199219 7.042969-2.222656 10.730469.128906 4.851563 1.171875 9.628906 3.078125 14.089844 4.289062 9.765625 10.363281 18.640625 17.902344 26.183593.695312.851563 1.5625 1.554688 2.539062 2.054688.980469.503906 2.054688.800781 3.152344.867188 1.082031-.109376 2.128906-.4375 3.074218-.964844.949219-.53125 1.777344-1.25 2.433594-2.113282.707032-.953124 21.195313-19.996093 21.257813-39.808593zm0 0"/></g></svg>

<svg xmlns="http://www.w3.org/2000/svg" xmlns:xlink="http://www.w3.org/1999/xlink" width="250px" height="250px" viewBox="0 0 250 250" version="1.1">
<g id="surface1">
<path style=" stroke:none;fill-rule:nonzero;fill:rgb(100%,4.313726%,45.882353%);fill-opacity:1;" d="M 124.996094 0.0078125 C 100.273438 0.0078125 76.109375 7.339844 55.550781 21.074219 C 34.996094 34.808594 18.976562 54.328125 9.515625 77.167969 C 0.0546875 100.011719 -2.421875 125.140625 2.402344 149.390625 C 7.226562 173.636719 19.128906 195.910156 36.609375 213.390625 C 54.089844 230.871094 76.363281 242.773438 100.609375 247.597656 C 124.859375 252.421875 149.988281 249.945312 172.832031 240.484375 C 195.671875 231.023438 215.191406 215.003906 228.925781 194.449219 C 242.660156 173.890625 249.992188 149.726562 249.992188 125.003906 C 249.953125 91.867188 236.769531 60.09375 213.335938 36.664062 C 189.902344 13.230469 158.132812 0.046875 124.996094 0.0078125 Z M 235.285156 125.003906 C 235.285156 146.824219 228.816406 168.15625 216.691406 186.296875 C 204.570312 204.441406 187.335938 218.582031 167.175781 226.929688 C 147.015625 235.28125 124.832031 237.460938 103.429688 233.203125 C 82.03125 228.945312 62.371094 218.433594 46.945312 203 C 31.519531 187.570312 21.011719 167.910156 16.761719 146.507812 C 12.507812 125.105469 14.695312 102.921875 23.050781 82.765625 C 31.40625 62.605469 45.550781 45.378906 63.695312 33.261719 C 81.84375 21.140625 103.175781 14.675781 124.996094 14.683594 C 154.242188 14.714844 182.28125 26.347656 202.957031 47.03125 C 223.636719 67.714844 235.261719 95.757812 235.285156 125.003906 Z M 235.285156 125.003906 "/>
<path style=" stroke:none;fill-rule:nonzero;fill:rgb(100%,4.313726%,45.882353%);fill-opacity:1;" d="M 74.203125 116.175781 C 67.554688 113.53125 60.144531 113.566406 53.519531 116.265625 C 46.894531 118.96875 41.574219 124.128906 38.671875 130.664062 C 37.367188 133.84375 36.714844 137.25 36.75 140.683594 C 36.789062 144.121094 37.515625 147.511719 38.886719 150.660156 C 40.324219 154.066406 42.425781 157.152344 45.066406 159.742188 C 47.707031 162.328125 50.835938 164.367188 54.269531 165.738281 C 58.796875 167.449219 63.609375 168.285156 68.453125 168.199219 C 79.074219 167.816406 89.527344 165.445312 99.277344 161.214844 C 100.363281 160.976562 101.371094 160.472656 102.214844 159.75 C 103.054688 159.023438 103.703125 158.097656 104.097656 157.058594 C 104.492188 156.019531 104.621094 154.902344 104.472656 153.800781 C 104.320312 152.699219 103.902344 151.652344 103.246094 150.753906 C 102.816406 149.648438 92.601562 123.527344 74.203125 116.175781 Z M 74.203125 116.175781 "/>
<path style=" stroke:none;fill-rule:nonzero;fill:rgb(100%,4.313726%,45.882353%);fill-opacity:1;" d="M 146.378906 150.753906 C 145.730469 151.652344 145.316406 152.695312 145.167969 153.792969 C 145.023438 154.890625 145.148438 156.003906 145.539062 157.039062 C 145.929688 158.074219 146.570312 159 147.402344 159.726562 C 148.234375 160.457031 149.238281 160.964844 150.316406 161.214844 C 160.105469 165.453125 170.601562 167.820312 181.265625 168.199219 C 186.105469 168.28125 190.917969 167.445312 195.445312 165.734375 C 198.878906 164.367188 202.007812 162.328125 204.648438 159.742188 C 207.289062 157.152344 209.390625 154.066406 210.828125 150.660156 C 212.203125 147.511719 212.929688 144.121094 212.964844 140.683594 C 213 137.25 212.347656 133.84375 211.042969 130.664062 C 208.140625 124.089844 202.792969 118.902344 196.132812 116.199219 C 189.472656 113.492188 182.023438 113.484375 175.355469 116.175781 C 156.898438 123.527344 146.808594 149.644531 146.378906 150.753906 Z M 146.378906 150.753906 "/>
<path style=" stroke:none;fill-rule:nonzero;fill:rgb(100%,4.313726%,45.882353%);fill-opacity:1;" d="M 151.730469 102.667969 C 151.738281 95.511719 148.972656 88.632812 144.015625 83.472656 C 139.0625 78.308594 132.300781 75.265625 125.152344 74.980469 C 121.722656 74.957031 118.324219 75.617188 115.15625 76.921875 C 111.984375 78.226562 109.109375 80.148438 106.691406 82.578125 C 104.054688 85.160156 101.957031 88.234375 100.515625 91.628906 C 99.074219 95.023438 98.316406 98.671875 98.292969 102.359375 C 98.421875 107.210938 99.464844 111.988281 101.371094 116.449219 C 105.660156 126.214844 111.734375 135.089844 119.273438 142.632812 C 119.96875 143.484375 120.835938 144.1875 121.8125 144.6875 C 122.792969 145.191406 123.867188 145.488281 124.964844 145.554688 C 126.046875 145.445312 127.09375 145.117188 128.039062 144.589844 C 128.988281 144.058594 129.816406 143.339844 130.472656 142.476562 C 131.179688 141.523438 151.667969 122.480469 151.730469 102.667969 Z M 151.730469 102.667969 "/>
</g>
</svg>
